!!!!SEGMENT: Jom2002-O_vos_qui_transitis.krn
!!!id: Jom2002
!!!AGN: Motet
!!!SCT: Sherr (1989)
!!!voices: 4
!!!COM: Jachet of Mantua
!!!OTL: O vos qui transitis
**kern	**kern	**kern	**kern
*part4	*part3	*part2	*part1
*staff4	*staff3	*staff2	*staff1
*I"Bassus	*I"Tenor	*I"Altus	*I"Superius
*I'B	*I'T	*I'A	*I'S
*clefF4	*clefGv2	*clefGv2	*clefG2
*k[]	*k[]	*k[]	*k[]
*C:	*C:	*C:	*C:
*M2/1	*M2/1	*M2/1	*M2/1
*met(C)	*met(C)	*met(C)	*met(C)
!!section: Prima pars: O vos qui transitis
!!!OMD: Prima pars: O vos qui transitis
=1	=1	=1	=1
0r	0r	0r	0e
=2	=2	=2	=2
0r	0r	0r	1e
.	.	.	1g
=3	=3	=3	=3
0r	0r	0r	1.a
.	.	.	2a
=4	=4	=4	=4
0r	0r	0A	1e
.	.	.	[1cc
=5	=5	=5	=5
0r	0r	1A	2cc]
.	.	.	2b
.	.	1c	2a
.	.	.	2g
=6	=6	=6	=6
0r	0r	1.d	2f
.	.	.	4e
.	.	.	4d
.	.	.	1a
.	.	2d	.
=7	=7	=7	=7
0r	0E	1B	1g
.	.	[1g	1e
=8	=8	=8	=8
0r	1E	2g]	1.g
.	.	2f	.
.	1G	2e	.
.	.	2d	2f
=9	=9	=9	=9
0r	1.A	2c	2e
.	.	4B	2d
.	.	4A	.
.	.	[1e	[1c
.	2A	.	.
=10	=10	=10	=10
0AA	0E	0e_	1c]
.	.	.	[1cc
=11	=11	=11	=11
1AA	1.c	1e]	2cc]
.	.	.	2b
1C	.	1e	2.a
.	2B	.	.
.	.	.	4g
=12	=12	=12	=12
1.D	2A	2.d	0f
.	2G	.	.
.	.	4c	.
.	2F	2A	.
2D	4E	[2d	.
.	4D	.	.
=13	=13	=13	=13
0AA	[0A	2d]	1e
.	.	4c	.
.	.	4B	.
.	.	[1c	[1a
=14	=14	=14	=14
1.F	1A]	2c]	2a]
.	.	4B	2g
.	.	4c	.
.	[1D	2.d	[1f
2E	.	.	.
.	.	4c	.
=15	=15	=15	=15
2D	1D]	4B	2f]
.	.	4A	.
2C	.	1A	2e
1BB	1D	.	1d
.	.	2G#i	.
=16	=16	=16	=16
0AA	1E	1.A	0c
.	[1A	.	.
.	.	2B	.
=17	=17	=17	=17
0A	2A]	2c	0cc
.	2B	2d	.
.	1c	2e	.
.	.	2f	.
=18	=18	=18	=18
1G	1d	2.g	1b
.	.	8fL	.
.	.	8eJ	.
1G	1B	1d	1b
=19	=19	=19	=19
1.F	[0c	0f	1.a
4E	.	.	2f
4D	.	.	.
=20	=20	=20	=20
0C	0c]	1e	[0g
.	.	1e	.
=21	=21	=21	=21
0r	1B	1.d	0g]
.	1B	.	.
.	.	2B	.
=22	=22	=22	=22
0F	1.A	[0c	0a
.	2F	.	.
=23	=23	=23	=23
1E	0G	0c]	2g
.	.	.	2e
1E	.	.	1g
=24	=24	=24	=24
1.D	1.A	0d	1.f
2BB	[2G	.	4e
.	.	.	4d
=25	=25	=25	=25
0C	2G]	0c	2e
.	2F	.	2.g
.	1G	.	.
.	.	.	4f
.	.	.	[2e
=26	=26	=26	=26
0D	0F	[0A	2e]
.	.	.	4d
.	.	.	4c
.	.	.	1d
=27	=27	=27	=27
0AA	0E	0A]	0e
=28	=28	=28	=28
0AA	0A	0c	0e
=29	=29	=29	=29
1E	1B	1e	1g
1E	1B	1e	1g
=30	=30	=30	=30
0D	0d	0f	0a
=31	=31	=31	=31
1.F	1.c	1.f	1.a
2F	2c	2f	2a
=32	=32	=32	=32
[0C	2c	1e	1g
.	4B	.	.
.	4A	.	.
.	1G	[1g	[1cc
=33	=33	=33	=33
0C]	1.c	2g]	2cc]
.	.	2f	2b
.	.	2e	2a
.	2B	2d	2g
=34	=34	=34	=34
1r	2A	2c	2f
.	2G	2B	2e
[1c	1F	1A	1a
=35	=35	=35	=35
2c]	1E	2.e	1g
2B	.	.	.
.	.	4d	.
2A	[1A	2c	2f
2G	.	2B	[2e
=36	=36	=36	=36
1F	2A]	1A	4e]
.	.	.	4d
.	4G	.	4c
.	4F	.	4d
1E	[1G	1B	[1e
=37	=37	=37	=37
1.C	0G]	[0E	1e]
.	.	.	[1cc
2BB	.	.	.
=38	=38	=38	=38
2AA	1.c	1E]	2cc]
2GG	.	.	2b
[1FF	.	[1c	2a
.	2B	.	2g
=39	=39	=39	=39
2FF]	2A	2c]	2f
2GG	2G	2B	1e
2AA	1F	1A	.
2BB	.	.	2d
=40	=40	=40	=40
1.C	1E	1G	[0e
.	[1A	1c	.
4BB	.	.	.
4AA	.	.	.
=41	=41	=41	=41
[0E	2A]	[0B	0e_
.	4G	.	.
.	4F	.	.
.	1G	.	.
=42	=42	=42	=42
0E;]	0G;	0B;]	0e;]
=43	=43	=43	=43
0E	0G	0B	0e
=44	=44	=44	=44
1E	1B	1e	1g
[1C	[1c	[1e	[1g
=45	=45	=45	=45
2C]	2c]	2e]	2g]
2C	2c	2e	2g
1C	1c	1e	[1g
=46	=46	=46	=46
1G	1B	1d	1g]
[1F	1A	[1f	[1a
=47	=47	=47	=47
1F]	[0c	1f]	1a]
[1C	.	[1e	[1g
=48	=48	=48	=48
0C]	0c]	0e]	1g]
.	.	.	2r
.	.	.	2e
=49	=49	=49	=49
0D	0A	2d	2f
.	.	2.f	2d
.	.	.	1f
.	.	4e	.
.	.	4d	.
.	.	4c	.
=50	=50	=50	=50
2GG	2r	1B	1g
2G	2B	.	.
2F	2c	[1A	[1a
[2A	2A	.	.
=51	=51	=51	=51
4A]	1c	1A]	0a]
4G	.	.	.
4F	.	.	.
4E	.	.	.
1F	1d	2r	.
.	.	2A	.
=52	=52	=52	=52
2E	0e	2B	0g
2.G	.	2G	.
.	.	1B	.
4F	.	.	.
4E	.	.	.
4D	.	.	.
=53	=53	=53	=53
1E	1r	1c	2r
.	.	.	2e
[1D	2r	1d	2f
.	[2d	.	2d
=54	=54	=54	=54
1D]	4d]	0r	1f
.	4c	.	.
.	4B	.	.
.	4A	.	.
2r	1B	.	1g
2E	.	.	.
=55	=55	=55	=55
2F	1A	2r	0a
2D	.	2.d	.
1F	1r	.	.
.	.	4c	.
.	.	4B	.
.	.	4A	.
=56	=56	=56	=56
1G	2r	1B	1g
.	2B	.	.
[1A	2c	1A	2e
.	2A	.	[2cc
=57	=57	=57	=57
1A]	1c	1r	2cc]
.	.	.	4b
.	.	.	4a
1G	1d	2r	2b
.	.	2B	[2g
=58	=58	=58	=58
2.c	0e	2c	2g]
.	.	2A	1cc
4B	.	.	.
2A	.	1c	.
2G	.	.	2b
=59	=59	=59	=59
1F	2r	1d	1a
.	2A	.	.
[1E	2B	[1e	1g
.	2G	.	.
=60	=60	=60	=60
1E]	2B	1e]	2r
.	2c	.	2e
[1D	[1d	1A	2f
.	.	.	2d
=61	=61	=61	=61
2D]	2d]	2r	2f
2G	4c	2B	2g
.	4B	.	.
2.F	2A	2c	2.a
.	[2c	2A	.
4G	.	.	8gL
.	.	.	8fJ
=62	=62	=62	=62
2A	2c]	2c	2e
2F	4B	2d	1a
.	4A	.	.
1E	1B	[1e	.
.	.	.	2g#i
=63	=63	=63	=63
1A	1r	0e_	1a
[1c	1A	.	1r
=64	=64	=64	=64
2c]	1.c	1e]	0a
2B	.	.	.
[1A	.	1r	.
.	2B	.	.
=65	=65	=65	=65
2A]	1A	1r	1cc
2F	.	.	.
2.G	2B	[1d	1b
.	2G	.	.
4F	.	.	.
=66	=66	=66	=66
0D	2.A	1d]	1a
.	4G	.	.
.	2F	1f	2r
.	2D	.	2a
=67	=67	=67	=67
1r	1E	1e	2g
.	.	.	2e
[1D	1r	1d	2.f
.	.	.	4g
=68	=68	=68	=68
1D]	0r	2r	1a
.	.	2d	.
1F	.	2c	2r
.	.	2A	2a
=69	=69	=69	=69
1E	1r	2.B	2g
.	.	.	2e
.	.	4c	.
[1D	[1A	[1d	[1f
=70	=70	=70	=70
1D]	1A]	1d]	1f]
2r	1c	1r	[1e
2A	.	.	.
=71	=71	=71	=71
2G	1B	1r	1e]
2E	.	.	.
[1F	1A	2r	1r
.	.	2d	.
=72	=72	=72	=72
1F]	2r	2c	1r
.	2A	2A	.
1E	2G	1B	1g
.	2E	.	.
=73	=73	=73	=73
2r	1F	0A	2f
2D	.	.	2d
2C	1E	.	1e
2AA	.	.	.
=74	=74	=74	=74
1BB	1r	2r	2.d
.	.	2d	.
.	.	.	4e
2AA	1A	2c	4f
.	.	.	4e
2FF	.	2A	[2f
=75	=75	=75	=75
1C	2G	1c	4f]
.	.	.	4e
.	2E	.	1e
1D	1F	1B	.
.	.	.	2d
=76	=76	=76	=76
0AA	[0E	2.A	2e
.	.	.	2.a
.	.	4B	.
.	.	4c	.
.	.	4d	4b
.	.	[2e	4cc
.	.	.	4b
=77	=77	=77	=77
1r	0E]	2e]	2cc
.	.	2d	2.b
1E	.	2c	.
.	.	.	4a
.	.	4B	[2a
.	.	4A	.
=78	=78	=78	=78
2E	0r	1B	2a]
2E	.	.	2g#i
[1F	.	[1A	[1a
=79	=79	=79	=79
1F]	1c	1A]	1a]
1E	2c	1r	1r
.	2c	.	.
=80	=80	=80	=80
1.D	0d	0r	1r
.	.	.	1a
2E	.	.	.
=81	=81	=81	=81
1F	1c	0r	2a
.	.	.	2a
1G	[1B	.	[1b
=82	=82	=82	=82
1G	2B]	1d	1b]
.	2G	.	.
2.F	2.A	2d	1a
.	.	2d	.
4E	4B	.	.
=83	=83	=83	=83
0C	2.c	0e	1.g
.	4B	.	.
.	[1G	.	.
.	.	.	2a
=84	=84	=84	=84
1r	1G]	1d	1b
[1F	[1A	[1c	[1cc
=85	=85	=85	=85
1F]	1A]	2c]	1cc]
.	.	2d	.
1G	2.B	1e	1b
.	4c	.	.
=86	=86	=86	=86
1D	1d	0f	1.a
2F	[1c	.	.
4E	.	.	4g
4D	.	.	4f
=87	=87	=87	=87
1C	2c]	1e	2.g
.	2B	.	.
.	.	.	4a
1D	[1A	[1d	1f
=88	=88	=88	=88
0AA	2A]	2d]	[0e
.	4G	4c#i	.
.	4F	4B	.
.	2E	1c#i	.
.	[2A	.	.
=89	=89	=89	=89
0E	2A]	1B	0e]
.	4G#i	.	.
.	4F#i	.	.
.	1G#i	2r	.
.	.	2B	.
=90	=90	=90	=90
0r	1A	1c	2r
.	.	.	2e
.	1D	1A	1f
=91	=91	=91	=91
0r	1r	2B	1d
.	.	1B	.
.	1E	.	1e
.	.	[2c	.
=92	=92	=92	=92
0r	1F	2c]	1.a
.	.	1A	.
.	1D	.	.
.	.	[2B	4g
.	.	.	4f
=93	=93	=93	=93
2r	1E	4B]	1g
.	.	4G	.
2E	.	2.c	.
1F	1r	.	1a
.	.	4A	.
.	.	[2d	.
=94	=94	=94	=94
1D	1r	4d]	1f
.	.	4c	.
.	.	4B	.
.	.	4A	.
1E	2r	1G	[1e
.	2B	.	.
=95	=95	=95	=95
1.A	1c	0r	1e]
.	1A	.	1cc
4G	.	.	.
4F	.	.	.
=96	=96	=96	=96
1G	2B	2r	1b
.	1e	2B	.
1A	.	1c	1a
.	4d	.	.
.	4c	.	.
=97	=97	=97	=97
1F	1d	1A	2a
.	.	.	4g
.	.	.	4f
[1E	2.e	1B	[1g
.	4d	.	.
=98	=98	=98	=98
2E]	2B	1.e	2g]
2C	2.c	.	4f
.	.	.	4e
[1F	.	.	[1a
.	4B	.	.
.	4A	4d	.
.	4G	4c	.
=99	=99	=99	=99
1F]	1A	1d	1a]
1E	1B	[1e	[1g
=100	=100	=100	=100
2r	2r	0e_	1g]
2E	2B	.	.
2A	2c	.	1r
2G	2B	.	.
=101	=101	=101	=101
1A	1c	0e_	1r
1E	2B	.	2r
.	2G	.	2b
=102	=102	=102	=102
0r	2A	1e]	2cc
.	2G	.	2b
.	1A	2r	1cc
.	.	2A	.
=103	=103	=103	=103
2r	1E	2B	2b
2E	.	2.c	2g
2F	2r	.	2a
.	.	4d	.
2E	[2c	[2e	2g
=104	=104	=104	=104
1F	2c]	2e]	1a
.	2A	2d	.
2E	2B	2r	2.g
2C	2c	2e	.
.	.	.	4f
=105	=105	=105	=105
2D	0A	2f	2d
2C	.	2e	1e
1D	.	1f	.
.	.	.	2d
=106	=106	=106	=106
2AA	2r	[0e	2r
2E	2B	.	2g
2AA	2c	.	2a
2E	2B	.	2g
=107	=107	=107	=107
4AA	1c	1e]	1a
4BB	.	.	.
4C	.	.	.
4D	.	.	.
1E	2B	2r	1g
.	2G	2B	.
=108	=108	=108	=108
0r	2A	2c	1.e
.	2G	2B	.
.	1A	1c	.
.	.	.	2f
=109	=109	=109	=109
2r	1E	2B	2.g
2E	.	2G	.
.	.	.	4f
2F	1r	2A	2d
2E	.	2G	[2e
=110	=110	=110	=110
1F	2r	1A	2e]
.	2A	.	2d
[1E	2c	[1G	[1e
.	2B	.	.
=111	=111	=111	=111
0E]	1c	1G]	0e_
.	2B	2r	.
.	2G	2B	.
=112	=112	=112	=112
1r	2A	2c	1e]
.	2G	2B	.
2r	1A	1c	2r
2AA	.	.	2e
=113	=113	=113	=113
2D	2.A	1.A	2f
2C	.	.	2e
.	4G	.	.
1D	2F	.	1f
.	4E	2B	.
.	4D	.	.
=	=	=	=
00AA	00A	00c	00e
=||	=||	=||	=||
*M2/1	*M2/1	*M2/1	*M2/1
*met(C)	*met(C)	*met(C)	*met(C)
!!section: Secunda pars: Cogitationes mee disipate
!!!OMD: Secunda pars: Cogitationes mee disipate
0r	1.A	0r	0r
.	2A	.	.
=114	=114	=114	=114
0r	1A	1r	0r
.	1G	[1e	.
=115	=115	=115	=115
1.A	1.A	2e]	0r
.	.	2e	.
.	.	1e	.
2A	2G	.	.
=116	=116	=116	=116
1A	1F	1d	0r
1G	1E	[1e	.
=117	=117	=117	=117
1.A	2e	2e]	1.a
.	2e	2d	.
.	1e	2c	.
2G	.	[2B	2a
=118	=118	=118	=118
1F	1d	2B]	1a
.	.	2A	.
1E	[1e	1B	1g
=119	=119	=119	=119
[0AA	2e]	1r	1.a
.	2d	.	.
.	2.c	[1A	.
.	.	.	2g
.	4B	.	.
=120	=120	=120	=120
1AA]	2.A	2A]	2f
.	.	2A	1e
.	4G	.	.
1r	1F	1A	.
.	.	.	2d
=121	=121	=121	=121
0r	1E	1G	0e
.	[1A	[1A	.
=122	=122	=122	=122
1A	2A]	2A]	1e
.	2B	2G	.
2A	2c	1F	1f
2A	2A	.	.
=123	=123	=123	=123
1G	1B	1E	1g
[1A	2A	2r	2e
.	[2c	[2A	[2cc
=124	=124	=124	=124
2A]	4c]	2A]	2cc]
.	4d	.	.
2G	1e	2B	2b
1F	.	2c	1a
.	2d	2A	.
=125	=125	=125	=125
1E	1e	2B	1g
.	.	1e	.
1F	2r	.	1r
.	[2A	2d	.
=126	=126	=126	=126
2r	2A]	1e	0r
1E	2B	.	.
.	2c	1r	.
2F	2A	.	.
=127	=127	=127	=127
2G	2B	0r	0r
2E	1e	.	.
1F	.	.	.
.	2d	.	.
=128	=128	=128	=128
2E	0e	2r	1r
1A	.	1A	.
.	.	.	2r
2G	.	2B	[2e
=129	=129	=129	=129
1A	0r	2c	2e]
.	.	2A	2f
1E	.	2B	2g
.	.	[2e	2e
=130	=130	=130	=130
0r	1r	2e]	1f
.	.	2d	.
.	2r	1e	[1e
.	[2A	.	.
=131	=131	=131	=131
2r	2A]	0r	1e]
1E	2B	.	.
.	2c	.	1r
2F	2A	.	.
=132	=132	=132	=132
2G	2B	0r	1r
2E	2.c	.	.
[1F	.	.	2r
.	4B	.	.
.	[2A	.	[2a
=133	=133	=133	=133
2F]	2A]	2r	2a]
2E	2G	1e	2b
1A	1c	.	2cc
.	.	2f	2a
=134	=134	=134	=134
2G	2B	2g	2b
1A	2A	2e	2.cc
.	2c	[1f	.
.	.	.	4b
2D	[2d	.	[2a
=135	=135	=135	=135
1F	4d]	2f]	2a]
.	4c	.	.
.	4B	2d	4g#i
.	4A	.	4f#i
1E	1B	1e	1g#i
=136	=136	=136	=136
[0AA	1.A	2c	1a
.	.	4B	.
.	.	4A	.
.	.	2.c	1r
.	4G	.	.
.	4F	4d	.
=137	=137	=137	=137
1AA]	2E	2e	1cc
.	2.A	2.f	.
1r	.	.	2cc
.	4G	4e	.
.	4F	[2e	2cc
.	4E	.	.
=138	=138	=138	=138
0r	1F	2e]	1a
.	.	2d	.
.	1E	[1e	1g
=139	=139	=139	=139
1r	2.A	1e]	1.cc
.	4B	.	.
1F	2c	1r	.
.	[2d	.	2b
=140	=140	=140	=140
2F	4d]	0r	2a
.	4c	.	.
2F	1c	.	2g
1D	.	.	1f
.	2B	.	.
=141	=141	=141	=141
1C	1c	0r	[0e
[1c	1r	.	.
=142	=142	=142	=142
2c]	0r	1c	0e]
2B	.	.	.
2A	.	2c	.
2G	.	2c	.
=143	=143	=143	=143
2.F	1c	1A	0r
4E	.	.	.
[1C	2c	1G	.
.	2c	.	.
=144	=144	=144	=144
0C_	1A	1r	0r
.	1G	[1g	.
=145	=145	=145	=145
1C]	1.c	2g]	1r
.	.	2f	.
1r	.	2e	1cc
.	2B	2d	.
=146	=146	=146	=146
0r	2A	1.c	2cc
.	2G	.	2cc
.	1F	.	1a
.	.	4B	.
.	.	4A	.
=147	=147	=147	=147
0r	1E	1B	1g
.	[1A	2.A	[1cc
.	.	4B	.
=148	=148	=148	=148
1F	0A_	2c	2cc]
.	.	2.d	2b
2F	.	.	2a
.	.	4c	.
2F	.	[2c	2g
=149	=149	=149	=149
1D	2A]	2c]	1f
.	4G	2B	.
.	4F	.	.
[1C	[1G	1c	[1e
=150	=150	=150	=150
1C]	1G]	1.g	0e_
[1c	[1C	.	.
.	.	4f	.
.	.	4e	.
=151	=151	=151	=151
2c]	1C]	1g	1e]
2B	.	.	.
2A	[1c	2f	[1a
2G	.	[2e	.
=152	=152	=152	=152
1F	2c]	2e]	2a]
.	4B	2d	4g
.	4A	.	4f
[1E	1B	[1e	[1g
=153	=153	=153	=153
2E]	1c	1e]	1g]
4D	.	.	.
4C	.	.	.
[1G	[1B	[1d	2r
.	.	.	[2g
=154	=154	=154	=154
1G]	1B]	2d]	2g]
.	.	2e	2g
2.F	1r	1f	1a
4E	.	.	.
=155	=155	=155	=155
0C	0G	1.e	1cc
.	.	.	2cc
.	.	4d	2cc
.	.	4c	.
=156	=156	=156	=156
0r	1G	1d	1b
.	1A	2c	2a
.	.	4B	[2cc
.	.	4A	.
=157	=157	=157	=157
0C	1.c	[0e	2cc]
.	.	.	4b
.	.	.	4a
.	.	.	1g
.	2c	.	.
=158	=158	=158	=158
1C	1c	0e]	2r
.	.	.	1g
1E	1B	.	.
.	.	.	2g
=159	=159	=159	=159
1.F	[0A	1r	1a
.	.	[1c	[1cc
2F	.	.	.
=160	=160	=160	=160
1F	1A]	1c]	2cc]
.	.	.	2cc
2E	2r	1c	1cc
2C	[2G	.	.
=161	=161	=161	=161
1G	2G]	1d	1b
.	2G	.	.
2D	[1A	[1f	1a
[2F	.	.	.
=162	=162	=162	=162
4F]	0A]	2f]	2r
4E	.	.	.
4D	.	2f	1a
4C	.	.	.
1D	.	1f	.
.	.	.	4g
.	.	.	4f
=163	=163	=163	=163
[0C	1.c	[0e	1.g
.	2c	.	4f
.	.	.	4e
=164	=164	=164	=164
1C]	1c	1e]	2.g
.	.	.	4a
1G	1B	1d	1b
=165	=165	=165	=165
2.F	2A	1f	2cc
.	2.c	.	2.a
4E	.	.	.
2C	.	2e	.
.	4B	.	4g
2E	4A	4d	[2g
.	4G	4c	.
=166	=166	=166	=166
1D	1A	1d	2g]
.	.	.	2f#i
1r	1G	1B	1g
=167	=167	=167	=167
0C	0G	0c	0e
=168	=168	=168	=168
1C	1G	1c	1e
[1F	[1A	[1c	[1f
=169	=169	=169	=169
2F]	2A]	0c]	2f]
2E	2G	.	2.g
1C	2E	.	.
.	.	.	4f
.	[2G	.	[2e
=170	=170	=170	=170
0D	2G]	0A	2e]
.	4F#i	.	4d
.	4E	.	4c
.	1F#i	.	1d
=171	=171	=171	=171
0GG	0G	0B	0d
=172	=172	=172	=172
0C	0G	0c	0e
=173	=173	=173	=173
1GG	1G	1B	1d
1GG	1G	1B	[1g
=174	=174	=174	=174
0D	0A	0d	2g]
.	.	.	4f
.	.	.	4e
.	.	.	1f
=175	=175	=175	=175
1E	1.G	1B	1e
1C	.	1c	[1e
.	4F	.	.
.	4E	.	.
=176	=176	=176	=176
0D	0F	0A	2e]
.	.	.	4d
.	.	.	4c
.	.	.	1d
=177	=177	=177	=177
0G	[0E	0B	0e
=178	=178	=178	=178
1G	0E]	4E	0r
.	.	4F	.
.	.	4G	.
.	.	4A	.
1G	.	2B	.
.	.	[2c	.
=179	=179	=179	=179
0A	0r	2c]	0e
.	.	4B	.
.	.	4A	.
.	.	1c	.
=180	=180	=180	=180
1.G	4E	1B	1e
.	4F	.	.
.	4G	.	.
.	4A	.	.
.	2B	1r	1g
4F	[2c	.	.
4E	.	.	.
=181	=181	=181	=181
2.F	2c]	0r	1.a
.	4B	.	.
4G	4A	.	.
1A	[1c	.	.
.	.	.	2a
=182	=182	=182	=182
[0AA	2c]	0A	1e
.	2B	.	.
.	2A	.	[1cc
.	4G	.	.
.	4F	.	.
=183	=183	=183	=183
0AA]	1E	1A	2cc]
.	.	.	2b
.	1r	1c	2a
.	.	.	2g
=184	=184	=184	=184
0r	0r	1.d	2f
.	.	.	4e
.	.	.	4d
.	.	.	1a
.	.	2d	.
=185	=185	=185	=185
0r	0E	1B	1g
.	.	[1g	1e
=186	=186	=186	=186
0r	1E	2g]	1.g
.	.	2f	.
.	1G	2e	.
.	.	2d	2f
=187	=187	=187	=187
[0AA	1.A	2c	2e
.	.	4B	2d
.	.	4A	.
.	.	[1e	[1c
.	2A	.	.
=188	=188	=188	=188
0AA]	0E	0e_	1c]
.	.	.	[1cc
=189	=189	=189	=189
1AA	1.c	1e]	2cc]
.	.	.	2b
1C	.	1e	2.a
.	2B	.	.
.	.	.	4g
=190	=190	=190	=190
1.D	2A	2.d	0f
.	2G	.	.
.	.	4c	.
.	2F	2A	.
2D	4E	[2d	.
.	4D	.	.
=191	=191	=191	=191
0AA	[0A	2d]	1e
.	.	4c	.
.	.	4B	.
.	.	[1c	[1a
=192	=192	=192	=192
1.F	1A]	2c]	2a]
.	.	4B	2g
.	.	4c	.
.	[1D	2.d	[1f
2E	.	.	.
.	.	4c	.
=193	=193	=193	=193
2D	0D]	4B	2f]
.	.	4A	.
2C	.	1A	2e
1BB	.	.	1d
.	.	2G#i	.
=194	=194	=194	=194
0AA	1E	1.A	0c
.	[1A	.	.
.	.	2B	.
=195	=195	=195	=195
1A	2A]	2c	0cc
.	2B	2d	.
1A	1c	2e	.
.	.	2f	.
=196	=196	=196	=196
1G	1d	2.g	1b
.	.	8fL	.
.	.	8eJ	.
1G	1B	1d	1b
=197	=197	=197	=197
1.F	[0c	0f	1.a
4E	.	.	2f
4D	.	.	.
=198	=198	=198	=198
0C	0c]	1e	[0g
.	.	1e	.
=199	=199	=199	=199
0r	1B	1.d	0g]
.	1B	.	.
.	.	2B	.
=200	=200	=200	=200
0F	1.A	[0c	0a
.	2F	.	.
=201	=201	=201	=201
1E	0G	0c]	2g
.	.	.	2e
1E	.	.	1g
=202	=202	=202	=202
1.D	1.A	0d	1.f
2BB	[2G	.	4e
.	.	.	4d
=203	=203	=203	=203
0C	2G]	0c	2e
.	2E	.	2.g
.	1G	.	.
.	.	.	4f
.	.	.	[2e
=204	=204	=204	=204
0D	0F	[0A	2e]
.	.	.	4d
.	.	.	4c
.	.	.	1d
=205	=205	=205	=205
0AA	0E	0A]	0e
=206	=206	=206	=206
0AA	0A	0c	0e
=207	=207	=207	=207
1E	1B	1e	1g
1E	1B	1e	1g
=208	=208	=208	=208
0D	0d	0f	0a
=209	=209	=209	=209
1.F	1.c	1.f	1.a
2F	2c	2f	2a
=210	=210	=210	=210
[0C	2c	1e	1g
.	4B	.	.
.	4A	.	.
.	1G	[1g	[1cc
=211	=211	=211	=211
0C]	1.c	2g]	2cc]
.	.	2f	2b
.	.	2e	2a
.	2B	2d	2g
=212	=212	=212	=212
1r	2A	2c	2f
.	2G	2B	2e
[1c	1F	1A	1a
=213	=213	=213	=213
2c]	1E	2.e	1g
2B	.	.	.
.	.	4d	.
2A	[1A	2c	2f
2G	.	2B	[2e
=214	=214	=214	=214
1F	2A]	1A	4e]
.	.	.	4d
.	4G	.	4c
.	4F	.	4d
1E	[1G	1B	[1e
=215	=215	=215	=215
1.C	0G]	[0E	1e]
.	.	.	[1cc
2BB	.	.	.
=216	=216	=216	=216
2AA	1.c	1E]	2cc]
2GG	.	.	2b
[1FF	.	[1c	2a
.	2B	.	2g
=217	=217	=217	=217
2FF]	2A	2c]	2f
2GG	2G	2B	1e
2AA	1F	1A	.
2BB	.	.	2d
=218	=218	=218	=218
1.C	1E	1G	[0el
.	[1A	1c	.
4BB	.	.	.
4AA	.	.	.
=219	=219	=219	=219
[0El	2A]	[0Bl	0e_
.	4G	.	.
.	4F	.	.
.	1G	.	.
=220	=220	=220	=220
00E]	00Gl	00B]	00e]
==	==	==	==
*-	*-	*-	*-
!!!system-decoration: [*]
!!!RDF**kern: i = editorial accidental
!!!RDF**kern: l = terminal long
!!!ENC: Benjamin Ory
!!!END: 2021/1/18
!!!EED: Benjamin Ory
!!!EEV: 2021/05/17
!!!YEC: Copyright 2021 Benjamin Ory, All Rights Reserved
!!!ONB: Translated from MusicXML on 2021/05/17
